X:1
T:Katy Hill
R:Reel
C:Trad.
A:Missouri
D:As recorded by Cyril Stinnett on his album "Cyril Stinnett Plays His
D:Favorite Old Time Tunes.'
Z:B. Shull, trans.; R.P. LaVaque, ABC
M:2/4
L:1/16
Q:122
K:G
d2-|:d2g(a bg)a(g|eg)d(g ea)ge|d(eg)(a bg)a(g|e)d-[dg][eg]- [d3g3]e-|
gdg(a bg)a(g|eg)d(g ef)g(a|ge)d(B A)(GEG)|(DE)GB A([GB][G2B2]):|
|:[G3B3]G A(GE)(F|G)(AB)d e(fge)|(dB)GB A(GE)(G|DE)GB A[GB][G2B2]|
[G3B3]G A(GE)(F|G)(AB)d e(fga)|(ge)d(B A)(GE)G|(DE)GB A([GB][G2B2]:|
[G3B3]G A(GE)(F|G)(AB)d e(fga)|(ge)d(B A)(GE)G|(DE)GB A(FG2:|
